usr/share/icons/biglinux-icons-material-dark/symbolic/actions/tag-new-symbolic.svg

<svg version="1.1" viewBox="0 0 16 16" xmlns="http://www.w3.org/2000/svg">
 <defs>
  <style id="current-color-scheme" type="text/css">.ColorScheme-Text {
        color:#dedede;
      }</style>
 </defs>
 <path d="m6.8711 0-4.8906 0.03125c-1.0983 0.0072-1.9847 0.89975-1.9863 1.998l-0.0078125 4.9492c-8e-4 0.53146 0.21014 1.0422 0.58594 1.418l6.6309 6.6309c0.7811 0.7811 2.0471 0.7811 2.8281 0l0.029297-0.029297a3.5 3.5 0 0 0 2.4395 1.002 3.5 3.5 0 0 0 3.5-3.5 3.5 3.5 0 0 0-0.99805-2.4453c0.75913-0.78346 0.75171-2.0334-0.023437-2.8066l-6.6816-6.6641c-0.3781-0.37718-0.89168-0.58748-1.4258-0.58398zm0.0058593 1c0.2671-0.00175 0.52379 0.10243 0.71289 0.29102l6.6816 6.666c0.39137 0.39037 0.39282 1.0233 0.001954 1.4141l-0.072266 0.072266a3.5 3.5 0 0 0-1.7012-0.44336 3.5 3.5 0 0 0-3.5 3.5 3.5 3.5 0 0 0 0.44922 1.6953l-0.125 0.125c-0.39052 0.3906-1.0235 0.3906-1.4141 0l-6.6309-6.6309c-0.1879-0.1879-0.29337-0.44326-0.29297-0.70898l0.0078125-4.9492c8.0001e-4 -0.54915 0.44299-0.9964 0.99219-1l4.8906-0.03125zm-2.877 2c-0.5523 0-1 0.44772-1 1s0.4477 1 1 1 1-0.44772 1-1-0.4477-1-1-1zm8.5 7c0.277 0 0.5 0.223 0.5 0.5v1.5h1.5c0.277 0 0.5 0.223 0.5 0.5s-0.223 0.5-0.5 0.5h-1.5v1.5c0 0.277-0.223 0.5-0.5 0.5s-0.5-0.223-0.5-0.5v-1.5h-1.5c-0.277 0-0.5-0.223-0.5-0.5s0.223-0.5 0.5-0.5h1.5v-1.5c0-0.277 0.223-0.5 0.5-0.5z" fill="#dedede"/>
</svg>

<svg xmlns="http://www.w3.org/2000/svg" viewBox="0 0 16 16">
<style id="current-color-scheme" type="text/css">
.ColorScheme-Contrast{color:#dedede}
</style>
<path d="m6.871 0-4.89.031A2 2 0 0 0-.006 2.03l-.008 4.95c0 .53.21 1.042.586 1.417l6.631 6.631a2 2 0 0 0 2.828 0l.03-.029A3.5 3.5 0 0 0 12.5 16a3.5 3.5 0 0 0 3.5-3.5 3.5 3.5 0 0 0-.999-2.445 2 2 0 0 0-.023-2.807L8.297.584A2 2 0 0 0 6.871 0m.006 1a1 1 0 0 1 .713.291l6.681 6.666a1 1 0 0 1 .002 1.414l-.072.072A3.5 3.5 0 0 0 12.5 9 3.5 3.5 0 0 0 9 12.5a3.5 3.5 0 0 0 .45 1.695l-.126.125a1 1 0 0 1-1.414 0L1.28 7.69a1 1 0 0 1-.294-.71l.008-4.949a1 1 0 0 1 .992-1zM4 3a1 1 0 1 0 0 2 1 1 0 0 0 0-2m8.5 7c.277 0 .5.223.5.5V12h1.5a.499.499 0 1 1 0 1H13v1.5a.499.499 0 1 1-1 0V13h-1.5a.499.499 0 1 1 0-1H12v-1.5c0-.277.223-.5.5-.5" class="ColorScheme-Contrast" style="fill:currentColor"/>
</svg>
